X: 1699
T: Maurie Gervasoni's Set Tune No 1
B: australian traditional tunes wiki
M:2/4
L:1/16
R: Set Tune
Q: 1/4=100
K:G
V:1 
"G"GB (3dBd e2d2|G2G6|GB (3dBd e2d2|"D7"[D8c8]|
Ac (3Ace f2e2|c2c6|f2f2 e2e2|"G"d8|!
GB (3dBd e2d2|G2G6|GB (3dBd e2d2|"D7"c8|
ecec f2e2|c2c4 fe|d2d2 e2f2|"G"g8||!
FGBd e2d2|B2B6|GB (3dBd e2d2|"D7"c8|
Ac (3Ace f2e2|e2e6|f2f2 efe2|"G"d8|!
GB (3dBd e2d2|B2d2 e2d2|GB (3dBd e2d2|"D7"[c8D8]|
cece a2f2|e2e4d2|e2e2 fef2|"G"g8||
% abcbook-tune_id 6342d53a5aecafc37838d599


% abcbook-boost 0
% abcbook-tablature 
% abcbook-transpose 
% abcbook-lastupdated 1665324378713
% abcbook-soundfonts 
% abcbook-repeats 1
% NFF Book 2008

